X: 417
T:The Bunny's Hat
M:4/4
L:1/8
C:David Lim
R:reel
N: Not at all sure about the barring of the B part, may be a couple of
N: 2/4 bars in there somewhere :-)
D:Michael McGoldrick : Fused
Z:Steve Mansfield July 2001
K:Bm
FABF cBAF | BcdB fedB | FABF ~A3 F | EF~F2 AB ~B2 |
FABF cBAF | BcdB fedB | FABd cA ~A2 | fdec B4 ::
FB de f2 ~ff | f2 ~ff  edBA | FBde f2 ~ff | edBA  B4 |
FB de f2 ~ff | afff bafe | dB~BB cA~AA | fdec B4 :|

